X:42
T:Donkey Riding
M:2/4
L:1/16
Q:1/4=3D100
K:Cm
E3F  G2G2|A2F2 G4 |G2F2 F2E2 |G2F2 F4|
E2F2 G2G2|A2F2 G4 |E2C2 D2B,2|C4   C4|
c4   B2GG|A2A2 G4 |G2F2 F2E2 |G2F2 F2E2|
c4   B2GG|A2A2 G3F|E2C2 D2B,2|C4  C4 ||
